X: 1729
T: Mitchell's Hornpipe   #2
R: hornpipe, reel
%S: s:2 b:10(4+6)
R: hornpipe
B: O'Neill's 1850 #1729
O: J.O'Neill
Z: Bob Safranek, rjs@gsp.org
Z: A. LEE WORMAN
M: C|
L: 1/8
K: D
A2 |: d>cd>c (B<d)A2 | d>cd>c (B<d)A2 \
| d>cd>e f>df>g | a>ge>c [1,2 d>AB>c :|[2,4 d2 :|
|: d>e |: f2f2 e2e2 | d2d2 c3z |\
[1,3 B>AB>d (c<A)F2 | B>AB>d (c<A)F2 :|\
[2,4 d>cd>e f>df>g | a>ge>c d2 :|
